Fitmo_frontend/public/assets/icons/phone.svg

<?xml version="1.0" encoding="UTF-8"?><svg id="Vrstva_1" xmlns="http://www.w3.org/2000/svg" viewBox="0 0 36.4586 36.4586"><g id="Group_294"><path id="Path_115" d="M23.8009,22.2812c-.4852-.1801-1.0304-.0714-1.4094,.2811-.4314,.4044-.8574,.8722-1.2807,1.2456-.6833,.6117-1.7001,.6661-2.4448,.1308-2.316-1.7633-4.3837-3.8308-6.1473-6.1466-.5354-.7447-.481-1.7614,.1307-2.4448,.3734-.4233,.8385-.8493,1.2457-1.2807,.3525-.379,.4612-.9242,.2811-1.4094l-1.8118-4.9637c-.1521-.4215-.5317-.7189-.9774-.7657-1.2207-.056-2.4214,.3244-3.3871,1.0731-4.4103,3.5151-2.62,9.9172,3.9607,16.4986,6.5807,6.5814,12.9835,8.3716,16.4986,3.9607,.7488-.9657,1.1292-2.1664,1.0731-3.3871-.0469-.4456-.3443-.8251-.7657-.9774l-4.9656-1.8145Z" fill="none" stroke="#1d1d1b" stroke-linecap="round" stroke-linejoin="round" stroke-width="1.0219"/><path id="Path_116" d="M18.4726,12.0418c2.8746-.4095,5.537,1.5889,5.9464,4.4636,.0701,.4918,.0701,.991,0,1.4828" fill="none" stroke="#1d1d1b" stroke-linecap="round" stroke-linejoin="round" stroke-width="1.0219"/><path id="Path_117" d="M17.9475,8.8792c4.6209-.6984,8.9331,2.4815,9.6314,7.1025,.1267,.8382,.1267,1.6907,0,2.529" fill="none" stroke="#1d1d1b" stroke-linecap="round" stroke-linejoin="round" stroke-width="1.0219"/><path id="Path_118" d="M17.5627,5.6963c6.3788-.9109,12.2883,3.5218,13.1992,9.9006,.1562,1.094,.1562,2.2046,0,3.2986" fill="none" stroke="#1d1d1b" stroke-linecap="round" stroke-linejoin="round" stroke-width="1.0219"/></g></svg>

<svg width="37" height="37" viewBox="0 0 37 37" fill="none" xmlns="http://www.w3.org/2000/svg">
<path d="M23.8009 22.2812C23.3157 22.1011 22.7705 22.2098 22.3915 22.5623C21.9601 22.9667 21.5341 23.4345 21.1108 23.8079C20.4275 24.4196 19.4107 24.474 18.666 23.9387C16.35 22.1754 14.2823 20.1079 12.5187 17.7921C11.9833 17.0474 12.0377 16.0307 12.6494 15.3473C13.0228 14.924 13.4879 14.498 13.8951 14.0666C14.2476 13.6876 14.3563 13.1424 14.1762 12.6572L12.3644 7.69347C12.2123 7.27197 11.8327 6.97457 11.387 6.92777C10.1663 6.87177 8.9656 7.25217 7.9999 8.00087C3.5896 11.516 5.3799 17.9181 11.9606 24.4995C18.5413 31.0809 24.9441 32.8711 28.4592 28.4602C29.208 27.4945 29.5884 26.2938 29.5323 25.0731C29.4854 24.6275 29.188 24.248 28.7666 24.0957L23.8009 22.2812Z" stroke="#1D1D1B" stroke-width="1.6" stroke-linecap="round" stroke-linejoin="round"/>
<path d="M18.4727 12.042C21.3473 11.6325 24.0097 13.6309 24.4191 16.5056C24.4892 16.9974 24.4892 17.4966 24.4191 17.9884" stroke="#1D1D1B" stroke-width="1.6" stroke-linecap="round" stroke-linejoin="round"/>
<path d="M17.9473 8.87939C22.5682 8.18099 26.8804 11.3609 27.5787 15.9819C27.7054 16.8201 27.7054 17.6726 27.5787 18.5109" stroke="#1D1D1B" stroke-width="1.6" stroke-linecap="round" stroke-linejoin="round"/>
<path d="M17.5625 5.69629C23.9413 4.78539 29.8508 9.21809 30.7617 15.5969C30.9179 16.6909 30.9179 17.8015 30.7617 18.8955" stroke="#1D1D1B" stroke-width="1.6" stroke-linecap="round" stroke-linejoin="round"/>
</svg>
